X:1
T:[ID 1-55]
T:[ID 1-55]
T:Bezeichnung standardisiert: Polonaise Polonese
T:Urheber unbekannt Datum in der hier transkribierten schriftlichen Quelle: vermutlich vor 1767
C:Urheber unbekannt
C:Datum in der hier transkribierten schriftlichen Quelle: vermutlich vor 1767
L:1/8
M:3/4
K:G
V:1 treble 
V:1
 BB/G/ cc/e/ d2 | BB/G/ cc/e/ A2 | BB/G/ cc/e/ d2 | BA/F/ G4 :: ff/d/ gg/b/ a2 | ff/d/ gg/b/ e2 | %6
 ff/d/ gg/b/ a2 | fe/"^[sic]"c/ d2 D2 :| !fermata!dd/e/ _ffff | e/f/e/d/ c2 c2 | ee/f/ gggg | %11
 f/g/f/e/ d2 d2 | BB/G/ cc/e/ d2 | BA/F/ G4 :| %14

